X: 1
T: The Seven Step
R: barndance
M: 4/4
L: 1/8
K: Gmaj
|:DE/2F/2|G2 G2 G2 G2|GABG E2 D2|B2 B2 B2 B2|BcdB A3 A|
BcdB G2 G2|GABG E2D2|DEGA BddB|A2 G2 G2 :||
|:A2|BcdB G2 G2|GABG E2 D2|DEGA BddB|B2 A2 A3 A|
BcdB G2 G2|GABG E2 D2|DEGA BddB|A2 G2 G2 :||


Tune 1307	Setting 14630

